X: 1
T: Banks Of The Shannon, The
M: 4/4
L: 1/8
R: hornpipe
K: Fmaj
(3CDE |: FEFA c=Bdc  | BGEG CDEC | FEFA cAFA | GCEG (3cdc (3BAG |
FEFA c=Bdc | BGEG cBAG | (3FGF CF DBGE |1 (3FEF (3GFE F2 (3CDE :|2 (3FEF (3GFE F2 AB ||
(3cBA fd cAFA | GCEG (3cdc (3BAG | FEFA cAFA | Gfed (3cdc (3BAG |
cAfd cAFA | GCEG (3cdc (3BAG | (3FGF CF DBGE |1(3FEF (3GFE F2 AB :|2 (3FEF (3GFE F4 ||
